!!!!SEGMENT: pl-wtm--r-1740--004_stefani-jozef--la-noce-ou-les-amours-du-village-maestoso.krn
!!!COM: Stefani, Józef
!!!COM-rismid: pe30024097
!!!CDT: 1800/04/16-1876/03/19
!!!CNT: Polish
!!!OTL: La Noce ou Les amours du Village – Maestoso
!!!PDT:
!!!AGN: Secular
!!!SMS-siglum: PL-Wtm
!!!SMS-shelfmark: R 1740
!!!SMS-shelfwork: 001-004 M
!!!SMS-variant:
!!!SMS-altvar:
!!!NIFC-rismid: 1001137574
!!!URL-scan: http://repozytorium.nifc.pl/skany/pl-wtm-nut--r1740
!!!ONB-nifc: UWAGA: No. 4., skan 0016
!!!OMD: maestoso
**kern	**kern	**dynam	**kern	**dynam	**kern	**dynam	**kern	**kern	**dynam	**kern	**kern	**kern	**dynam	**kern	**dynam	**kern	**kern	**dynam	**kern	**kern	**kern	**dynam
*part15	*part14	*part14	*part13	*part13	*part12	*part12	*part11	*part10	*part10	*part9	*part8	*part7	*part7	*part6	*part6	*part5	*part4	*part4	*part3	*part2	*part1	*part1
*staff15	*staff14	*	*staff13	*	*staff12	*	*staff11	*staff10	*	*staff9	*staff8	*staff7	*	*staff6	*	*staff5	*staff4	*	*staff3	*staff2	*staff1	*
*I"Tympani	*I"C: Basſi	*	*I"Violoncelli	*	*I"Viole	*	*I"Violini	*I"Violini	*	*I"Trombone	*I"in C Tromby	*I"Fagotti	*	*I"in C. Corni	*	*I"in G. Corni	*I"in C Clarinetti	*	*I"Oboe	*I"Picolo	*I"Flauto	*
*I'[timp]	*I'[cb]	*	*I'[vlc]	*	*I'[vla]	*	*I'[vl]	*I'[vl]	*	*I'[trb]	*I'[tr in C]	*I'[fag]	*	*I'[cor in C]	*	*I'[cor in G]	*I'[cl in C]	*	*I'[ob]	*I'[fl picc]	*I'[fl]	*
*stria1	*	*	*	*	*	*	*	*	*	*	*	*	*	*	*	*	*	*	*	*	*	*
*clefF1	*clefF4	*	*clefF4	*	*clefC3	*	*clefG2	*clefG2	*	*clefF4	*clefG2	*clefF4	*	*clefG2	*	*clefG2	*clefG2	*	*clefG2	*clefG2	*clefG2	*
*	*	*	*	*	*	*	*	*	*	*	*	*	*	*	*	*ITrd3c5	*	*	*	*ITrd0c0	*	*
*k[]	*k[fn]	*	*k[fn]	*	*k[fn]	*	*k[fn]	*k[fn]	*	*k[fn]	*k[]	*k[f#]	*	*k[]	*	*	*k[fn]	*	*k[fn]	*k[fn]	*k[fn]	*
*M4/4	*M4/4	*	*M4/4	*	*M4/4	*	*M4/4	*M4/4	*	*M4/4	*M4/4	*M4/4	*	*M4/4	*	*M4/4	*M4/4	*	*M4/4	*M4/4	*M4/4	*
*met(c)	*met(c)	*	*met(c)	*	*met(c)	*	*met(c)	*met(c)	*	*met(c)	*met(c)	*met(c)	*	*met(c)	*	*met(c)	*met(c)	*	*met(c)	*met(c)	*met(c)	*
*all\right	*all\right	*	*all\right	*	*all\right	*	*all\right	*all\right	*	*all\right	*all\right	*all\right	*	*all\right	*	*all\right	*all\right	*	*all\right	*all\right	*all\right	*
=1	=1	=1	=1	=1	=1	=1	=1	=1	=1	=1	=1	=1	=1	=1	=1	=1	=1	=1	=1	=1	=1	=1
!LO:SIC:s=4C\	!LO:TX:t=P:problem:mixed beam	!LO:DY:rj	!LO:TX:t=P:problem:mixed beam	!LO:DY:rj	!	!	!	!LO:TX:a:B:t=Maestoso.	!	!	!LO:TX:a:t=Tromb&colon;	!LO:TX:a:t=Fag&colon;	!	!	!	!	!	!	!	!	!LO:TX:a:t=Na 4	!
4Re\	8.GG/L	f	8.GG/Lyy	fy	8.dL 8.G/	.	8.g 8.B/	8.gL 8.B/	.	4GG/	4g 4G/	4G 4GG\	.	4g 4G/	.	4g 4G/	4g 4B/	.	4gg 4b\	4gg\	4gg\	.
!	!	!LO:DY:rj	!	!LO:DY:rj	!	!	!LO:TX:a:t=Unis	!	!	!	!	!	!	!	!	!	!	!	!	!	!	!
.	16G|\K	p	16G|\Kyy	py	16g|/K	p	16g/KLyy	16g'/K	p	.	.	.	.	.	.	.	.	.	.	.	.	.
4r	8.F#X|\	.	8.F#X|\yy	.	8.f#X|/	.	8.f#X/yy	8.f#X'/	.	4r	4r	4r	.	4r	.	4r	4r	.	4r	4r	4r	.
.	16G\Jk|	.	16G\Jk|yy	.	16g|/Jk	.	16g/Jkyy	16g'/Jk	.	.	.	.	.	.	.	.	.	.	.	.	.	.
2r	8.Fn\L|	.	8.Fn\L|yy	.	8.fn|\L	.	8.fn/Lyy	8.fn'/L	.	2r	2r	2r	.	2r	.	2r	2r	.	2r	2r	2r	.
.	16G\K|	.	16G\K|yy	.	16g|\K	.	16g/Kyy	16g'/K	.	.	.	.	.	.	.	.	.	.	.	.	.	.
.	8.F\|	.	8.F\|yy	.	8.f|\	.	8.f/yy	8.f'/	.	.	.	.	.	.	.	.	.	.	.	.	.	.
.	16G\Jk|	.	16G\Jk|yy	.	16g|\Jk	.	16g/Jkyy	16g'/Jk	.	.	.	.	.	.	.	.	.	.	.	.	.	.
=2	=2	=2	=2	=2	=2	=2	=2	=2	=2	=2	=2	=2	=2	=2	=2	=2	=2	=2	=2	=2	=2	=2
1r	8.E|\L	.	8.E|\Lyy	.	8.e|\L	.	8.e/Lyy	8.e/L	.	1r	1r	1r	.	1r	.	1r	1r	.	1r	1r	1r	.
.	16G|\K	.	16G|\Kyy	.	16g|\K	.	16g/Kyy	16g/K	.	.	.	.	.	.	.	.	.	.	.	.	.	.
.	8.E|\	.	8.E|\yy	.	8.e|\	.	8.e/yy	8.e/	.	.	.	.	.	.	.	.	.	.	.	.	.	.
.	16G|\Jk	.	16G|\Jkyy	.	16g|\Jk	.	16g/Jkyy	16g/Jk	.	.	.	.	.	.	.	.	.	.	.	.	.	.
.	8.D|\L	.	8.D|\Lyy	.	8.d|\L	.	8.d/L	8.d/L	.	.	.	.	.	.	.	.	.	.	.	.	.	.
.	16G|\K	.	16G|\Kyy	.	16g|\K	.	16g/K	16g/K	.	.	.	.	.	.	.	.	.	.	.	.	.	.
.	8.F|\	.	8.F|\yy	.	8.f|\	.	8.a/	8.a/	.	.	.	.	.	.	.	.	.	.	.	.	.	.
.	16D|\Jk	.	16D|\Jkyy	.	16d|\Jk	.	16f/Jk	16b/Jk	.	.	.	.	.	.	.	.	.	.	.	.	.	.
=3	=3	=3	=3	=3	=3	=3	=3	=3	=3	=3	=3	=3	=3	=3	=3	=3	=3	=3	=3	=3	=3	=3
*	*	*	*	*	*	*	*	*2\right	*	*	*	*	*	*	*	*	*	*	*	*	*	*
1r	4C/	.	8.C/L	.	8.c/L	.	2e/	2cc\	.	1r	1r	1r	.	1r	.	1r	1r	.	1r	1r	1r	.
.	.	.	16C/K	.	16c/K	.	.	.	.	.	.	.	.	.	.	.	.	.	.	.	.	.
.	4r	.	8.CC/	.	8.C/	.	.	.	.	.	.	.	.	.	.	.	.	.	.	.	.	.
.	.	.	16C/Jk	.	16c/Jk	.	.	.	.	.	.	.	.	.	.	.	.	.	.	.	.	.
.	4C/	.	8.CC/L	.	8.C/L	.	8.f/L	8.a\L	.	.	.	.	.	.	.	.	.	.	.	.	.	.
.	.	.	16C/K	.	16c/K	.	16g/K	16b\K	.	.	.	.	.	.	.	.	.	.	.	.	.	.
.	4r	.	8.CC/	.	8.C/	.	8.a/	8.cc\	.	.	.	.	.	.	.	.	.	.	.	.	.	.
.	.	.	16C/Jk	.	16c/Jk	.	16f/Jk	16a\Jk	.	.	.	.	.	.	.	.	.	.	.	.	.	.
=4	=4	=4	=4	=4	=4	=4	=4	=4	=4	=4	=4	=4	=4	=4	=4	=4	=4	=4	=4	=4	=4	=4
*	*	*	*	*	*	*	*	*	*	*	*	*	*	*	*	*	*^	*	*	*	*	*
1r	4C/	.	8.CC/L	.	8.C/L	.	4..e/	4..g/	.	1r	1r	1r	.	1r	.	1r	4r	1re	.	1r	1r	4r	.
.	.	.	16C/Jk	.	16c/Jk	.	.	.	.	.	.	.	.	.	.	.	.	.	.	.	.	.	.
.	4r	.	8.CC/L	.	8.C/L	.	.	.	.	.	.	.	.	.	.	.	8.g/L	.	.	.	.	8.gg\L|	.
.	.	.	16C/Jk	.	16c/Jk	.	16c/	16e/	.	.	.	.	.	.	.	.	16ee/Jk	.	.	.	.	16eee\Jk|	.
.	4C/	.	4CC/	.	8.C/L	.	4e/	4g/	.	.	.	.	.	.	.	.	4cc/	.	.	.	.	4ccc\|	.
.	.	.	.	.	16C/K	.	.	.	.	.	.	.	.	.	.	.	.	.	.	.	.	.	.
.	[4C/	.	[4C/	.	8.E/	.	4e/	4g/	.	.	.	.	.	.	.	.	4cc/	.	.	.	.	4ccc\|	.
.	.	.	.	.	16G/Jk	.	.	.	.	.	.	.	.	.	.	.	.	.	.	.	.	.	.
=5	=5	=5	=5	=5	=5	=5	=5	=5	=5	=5	=5	=5	=5	=5	=5	=5	=5	=5	=5	=5	=5	=5	=5
*	*	*	*	*	*	*	*	*	*	*	*	*	*	*	*	*	*	*	*	*	*	*2\right	*
1r	4C/]	.	4C/]	.	[1G	.	1d	[2f/	.	1r	1r	1r	.	8.r	.	1r	[2dd/	1re	.	1r	1r	[2ddd\	.
!	!	!	!	!	!	!	!	!	!	!	!	!	!	!	!LO:DY:rj	!	!	!	!	!	!	!	!
.	.	.	.	.	.	.	.	.	.	.	.	.	.	16ddKL 16g/	p	.	.	.	.	.	.	.	.
.	(8BB/L	.	(8BB/L	.	.	.	.	.	.	.	.	.	.	8.dd 8.g/	.	.	.	.	.	.	.	.	.
.	8AA/J	.	8AA/J	.	.	.	.	.	.	.	.	.	.	.	.	.	.	.	.	.	.	.	.
.	.	.	.	.	.	.	.	.	.	.	.	.	.	16ddJk 16g/	.	.	.	.	.	.	.	.	.
.	2BB/	.	2BB/	.	.	.	.	8.f/L]	.	.	.	.	.	2dd 2g/	.	.	8.dd/L]	.	.	.	.	8.ddd\L]	.
.	.	.	.	.	.	.	.	16G|>/K	.	.	.	.	.	.	.	.	16g/K	.	.	.	.	16gg\K|	.
.	.	.	.	.	.	.	.	8.g|>/	.	.	.	.	.	.	.	.	8.gg/	.	.	.	.	8.ggg\|	.
.	.	.	.	.	.	.	.	16f|>/Jk	.	.	.	.	.	.	.	.	16ff/Jk	.	.	.	.	16fff\Jk|	.
=6	=6	=6	=6	=6	=6	=6	=6	=6	=6	=6	=6	=6	=6	=6	=6	=6	=6	=6	=6	=6	=6	=6	=6
*	*	*	*	*	*	*	*	*	*	*	*	*	*	*^	*	*	*	*	*	*	*	*	*
*	*	*	*	*	*	*	*	*	*	*	*	*	*	*	*	*	*	*	*2\right	*	*	*	*	*
1r	4C/)	.	4C/)	.	4G/]	.	(2c/	4e/|	.	1r	1r	4c 4C\|	.	8.r	8.ryy	.	1r	4ee/|	2cc\	.	2r	1r	(4eee\|	.
.	.	.	.	.	.	.	.	.	.	.	.	.	.	16ccLL/	16ccLL\	.	.	.	.	.	.	.	.	.
!	!LO:TX:t=P:b:problem:diminuendolike accent	!	!LO:TX:t=P:problem:b:diminuendolike accent	!	!LO:TX:t=P:b:problem:diminuendolike accent	!	!	!	!	!	!	!LO:TX:b:t=P:problem:diminuendolike accent	!	!	!	!	!	!LO:TX:b:t=P:problem:diminuendolike accent	!	!	!	!	!LO:TX:b:t=P:problem:diminuendolike accent	!
.	(4AA^/	.	(4AA^/|	.	(4A^/|	.	.	(4f^/	.	.	.	(4A 4AA^<\	.	8.cc/	8.cc\	.	.	(4ff^</	.	.	.	.	(4fff^<\	.
.	.	.	.	.	.	.	.	.	.	.	.	.	.	16ccJJk/	16ccJJk\	.	.	.	.	.	.	.	.	.
!	!LO:TX:t=P:problem:mixed beam	!	!LO:TX:t=P:problem:mixed beam	!	!LO:TX:t=P:problem:mixed beam	!	!	!	!	!	!	!	!	!	!	!	!	!	!	!	!	!	!	!
.	8.GG/L)	.	8.GG/L)	.	8.G/L)	.	8.B/L)	8.d/L)	.	.	.	4G 4GG\)	.	4dd 4g/	2ryy	.	.	4dd/)	4b\	.	8.r	.	4ddd\))	.
.	16G\K|	.	16G\K|	.	16g\K|	.	16g/K|	16g/K|	.	.	.	.	.	.	.	.	.	.	.	.	16g/KL|>	.	.	.
.	8.F\|	.	8.F\|	.	8.f\|	.	8.a/|	8.a/|	.	.	.	4r	.	4r	.	.	.	4r	4ryy	.	8.a 8.f|>/	.	4r	.
.	16D\Jk|	.	16D\Jk|	.	16d\Jk|	.	16f/Jk|	16b/Jk|	.	.	.	.	.	.	.	.	.	.	.	.	16bJk 16f|>/	.	.	.
*	*	*	*	*	*	*	*	*	*	*	*	*	*	*v	*v	*	*	*v	*v	*	*	*	*	*
=7	=7	=7	=7	=7	=7	=7	=7	=7	=7	=7	=7	=7	=7	=7	=7	=7	=7	=7	=7	=7	=7	=7
1r	4C/	.	8.C/L	.	8.c/L	.	(2e/	(2cc\	.	1r	1r	8.C'\L	.	1r	.	1r	1r	.	(2cc (2e/	1r	1r	.
.	.	.	16C/Jk	.	16c/Jk	.	.	.	.	.	.	16c'\Jk	.	.	.	.	.	.	.	.	.	.
*	*	*	*	*	*	*	*	*	*	*	*	*rep	*	*	*	*	*	*	*	*	*	*
.	4r	.	8.CC/L	.	8.C/L	.	.	.	.	.	.	8.C'\L	.	.	.	.	.	.	.	.	.	.
.	.	.	16C/Jk	.	16c/Jk	.	.	.	.	.	.	16c'\Jk	.	.	.	.	.	.	.	.	.	.
*	*	*	*	*	*	*	*	*	*	*	*	*Xrep	*	*	*	*	*	*	*	*	*	*
*	*	*	*rep	*	*rep	*	*	*	*	*	*	*rep	*	*	*	*	*	*	*	*	*	*
.	4C/	.	8.CC/L	.	8.C/L	.	8.f/L)	8.a/L)	.	.	.	8.C'\L	.	.	.	.	.	.	8.aL 8.f/))	.	.	.
.	.	.	16C/Jk	.	16c/Jk	.	16g/K|	16b/K	.	.	.	16c'\Jk	.	.	.	.	.	.	16bK 16g/|	.	.	.
*	*	*	*Xrep	*	*Xrep	*	*	*	*	*	*	*Xrep	*	*	*	*	*	*	*	*	*	*
.	.	.	.	.	.	.	(8qb/	(8qdd/	.	.	.	.	.	.	.	.	.	.	(8qdd 8qb\	.	.	.
*	*	*	*rep	*	*rep	*	*	*	*	*	*	*rep	*	*	*	*	*	*	*	*	*	*
.	4r	.	8.CC/L	.	8.C/L	.	8.a/)	8.cc/)	.	.	.	8.C'\L	.	.	.	.	.	.	8.cc 8.a/)	.	.	.
.	.	.	16C/Jk	.	16c/Jk	.	16f/Jk|	16a/Jk	.	.	.	16c'\Jk	.	.	.	.	.	.	16aJk 16f/|	.	.	.
*	*	*	*Xrep	*	*Xrep	*	*	*	*	*	*	*Xrep	*	*	*	*	*	*	*	*	*	*
=8	=8	=8	=8	=8	=8	=8	=8	=8	=8	=8	=8	=8	=8	=8	=8	=8	=8	=8	=8	=8	=8	=8
*	*	*	*	*	*	*	*	*	*	*	*	*	*	*^	*	*	*^	*	*^	*	*	*
1r	4C/	.	8.CC/L	.	8.C/L	.	4.e/	4.g/	.	1r	1r	8.C\L	.	2r	2ryy	.	1r	4r	2rc	.	4.g 4.e/	2.ryy	1r	4r	.
.	.	.	16C/Jk	.	16c/Jk	.	.	.	.	.	.	16c\Jk	.	.	.	.	.	.	.	.	.	.	.	.	.
.	4r	.	8.CC/L	.	8.C/L	.	.	.	.	.	.	8.C\L	.	.	.	.	.	8.g/L	.	.	.	.	.	8.gg\L	.
.	.	.	.	.	.	.	8c/	8e/	.	.	.	.	.	.	.	.	.	.	.	.	8e 8c/	.	.	.	.
.	.	.	16C/Jk	.	16c/Jk	.	.	.	.	.	.	16c\Jk	.	.	.	.	.	16ee/Jk	.	.	.	.	.	16eee\Jk	.
.	4C/	.	4CC/	.	4C/	.	4e/	4g/	.	.	.	4C\	.	4r	4ryy	.	.	4cc/	4r	.	4g 4e/	.	.	4ccc\	.
!	!	!	!	!	!	!	!	!	!	!	!	!	!	!	!	!	!	!	!	!	!	!	!	!LO:TX:t=P:problem:utwór urywa się po takcie nr 8:global	!
.	4C/	.	4C/	.	4c\	.	4e/	4cc\	.	.	.	4c 4C\	.	4ee/	4cc\	.	.	4cc 4e/	4e\	.	4cc 4e/	4r	.	4ccc\	.
*	*	*	*	*	*	*	*	*	*	*	*	*	*	*v	*v	*	*	*v	*v	*	*v	*v	*	*	*
==	==	==	==	==	==	==	==	==	==	==	==	==	==	==	==	==	==	==	==	==	==	==
*-	*-	*-	*-	*-	*-	*-	*-	*-	*-	*-	*-	*-	*-	*-	*-	*-	*-	*-	*-	*-	*-	*-
!!!system-decoration: (<s1,s2,s3,s4>{s5,s6}<s7,s8,s9>)({s10,s11}<s12>{s13,s14}s15)
!!!RDF**kern: > = above
!!!RDF**kern: < = below
!!!RDF**kern: | = vertical stroke
!!!cenid: 18xx:1903
!!!ENC: Andrzej Kubiczek
!!!END: 2021-05-16
!!!ENC: Marcin Jachim
!!!END: 2021-04-20
